dist/images/footer/twitter.svg

<svg width="41" height="41" viewBox="0 0 41 41" fill="none" xmlns="http://www.w3.org/2000/svg">
<path d="M37.1445 10.1787C35.9197 10.707 34.5868 11.0873 33.2139 11.2354C34.6393 10.3886 35.7067 9.05077 36.2159 7.47295C34.8783 8.26862 33.4131 8.82656 31.8851 9.12202C31.2464 8.43928 30.474 7.89538 29.616 7.52421C28.758 7.15304 27.8327 6.96255 26.8978 6.96462C23.1154 6.96462 20.0734 10.0306 20.0734 13.793C20.0734 14.3214 20.1374 14.8497 20.2415 15.3581C14.5778 15.0619 9.52656 12.3561 6.16838 8.21343C5.55648 9.25857 5.23583 10.4486 5.23978 11.6597C5.23978 14.0292 6.44456 16.1186 8.28175 17.3474C7.19906 17.3047 6.14173 17.0071 5.19575 16.4788V16.5628C5.19575 19.881 7.54127 22.6308 10.6673 23.2632C10.0804 23.4157 9.47655 23.4936 8.87013 23.4953C8.42584 23.4953 8.00557 23.4513 7.5813 23.3913C8.44586 26.097 10.9635 28.0623 13.9614 28.1263C11.6159 29.9635 8.67801 31.0442 5.48794 31.0442C4.91557 31.0442 4.38722 31.0242 3.83887 30.9602C6.86483 32.9014 10.4552 34.0222 14.3217 34.0222C26.8738 34.0222 33.7423 23.6234 33.7423 14.5976C33.7423 14.3014 33.7423 14.0052 33.7223 13.709C35.0511 12.7364 36.2159 11.5316 37.1445 10.1787Z" fill="white"/>
</svg>

<svg width="41" height="41" fill="none" xmlns="http://www.w3.org/2000/svg"><path d="M37.145 10.179a13.69 13.69 0 01-3.931 1.056 6.809 6.809 0 003.002-3.762 13.475 13.475 0 01-4.33 1.649 6.81 6.81 0 00-4.988-2.157 6.823 6.823 0 00-6.825 6.828c0 .528.064 1.057.168 1.565A19.396 19.396 0 016.168 8.213a6.777 6.777 0 00-.928 3.447 6.83 6.83 0 003.042 5.687 6.886 6.886 0 01-3.086-.868v.084a6.827 6.827 0 005.471 6.7c-.587.153-1.19.23-1.797.232a9.1 9.1 0 01-1.289-.104 6.837 6.837 0 006.38 4.735 13.679 13.679 0 01-8.473 2.918c-.572 0-1.1-.02-1.65-.084a19.328 19.328 0 0010.484 3.062c12.552 0 19.42-10.399 19.42-19.424 0-.297 0-.593-.02-.889a14.7 14.7 0 003.422-3.53z" fill="#fff"/></svg>
